logos/datadog.svg

<?xml version="1.0" encoding="UTF-8"?>
<svg width="256px" height="256px" viewBox="0 0 256 256" version="1.1" xmlns="http://www.w3.org/2000/svg" xmlns:xlink="http://www.w3.org/1999/xlink" preserveAspectRatio="xMidYMid">
		<g fill="#632CA6">
				<path d="M16.5984,255.7216 L0,255.7216 L0,217.5104 L16.5984,217.5104 C28.5568,217.5104 34.544,223.5328 34.544,235.5744 C34.544,248.9984 28.5568,255.7216 16.5984,255.7216 M7.0976,249.5712 L15.5264,249.5712 C23.472,249.5712 27.44,244.9056 27.44,235.568 C27.44,227.6192 23.472,223.6448 15.5264,223.6448 L7.0976,223.6448 L7.0976,249.5712 Z M41.9808,255.7216 L34.6944,255.7216 L50.9472,217.5104 L58.576,217.5104 L75.184,255.7216 L67.5488,255.7216 L62.7296,245.2992 L50.464,245.2992 L52.9024,239.1584 L60.8576,239.1584 L54.5888,224.8032 L41.9808,255.7216 Z M71.1712,217.5104 L100.2272,217.5104 L100.2272,223.6544 L89.248,223.6544 L89.248,255.7216 L82.1536,255.7216 L82.1536,223.6544 L71.168,223.6544 L71.1712,217.5104 L71.1712,217.5104 Z M103.8752,255.7216 L96.5888,255.7216 L112.8448,217.5104 L120.4736,217.5104 L137.0784,255.7216 L129.4432,255.7216 L124.624,245.2992 L112.3584,245.2992 L114.7904,239.1584 L122.7456,239.1584 L116.4768,224.8032 L103.8752,255.7216 Z M158.384,255.7216 L141.7856,255.7216 L141.7856,217.5104 L158.384,217.5104 C170.3488,217.5104 176.3296,223.5328 176.3296,235.5744 C176.3296,248.9984 170.3488,255.7216 158.384,255.7216 M148.88,249.5712 L157.3152,249.5712 C165.2544,249.5712 169.232,244.9056 169.232,235.568 C169.232,227.6192 165.2544,223.6448 157.3152,223.6448 L148.88,223.6448 L148.88,249.5712 Z M181.1328,236.6688 C181.1328,223.712 187.5488,217.2352 200.3648,217.2352 C212.9856,217.2352 219.2928,223.712 219.2928,236.6688 C219.2928,249.5488 212.9856,255.9968 200.3648,255.9968 C188.1152,255.9936 181.712,249.5488 181.1328,236.6688 M200.3648,249.8368 C208.0736,249.8368 211.9296,245.3952 211.9296,236.5056 C211.9296,227.7536 208.0736,223.3728 200.3648,223.3728 C192.4544,223.3728 188.5024,227.7536 188.5024,236.5056 C188.5056,245.3952 192.4576,249.8368 200.3648,249.8368 M248.9024,240.2592 L248.9024,249.2032 C247.264,249.632 245.7952,249.84 244.512,249.84 C235.8304,249.84 231.4976,245.2544 231.4976,236.08 C231.4976,227.6096 236.0992,223.376 245.2864,223.376 C249.1264,223.376 252.6944,224.0896 255.9968,225.5168 L255.9968,219.1008 C252.6976,217.856 248.9504,217.2288 244.752,217.2288 C231.008,217.2288 224.1312,223.5072 224.1312,236.0768 C224.1312,249.344 230.8896,255.9904 244.4032,255.9904 C249.0528,255.9904 252.9152,255.312 256,253.9552 L256,233.9648 L244.5408,233.9648 L242.144,240.2528 L248.9024,240.2528 L248.9024,240.2592 L248.9024,240.2592 Z"></path>
				<path d="M192.0384,144.1504 L175.1488,133.008 L161.0592,156.544 L144.672,151.7536 L130.2432,173.776 L130.9824,180.7072 L209.4368,166.2496 L204.88,117.2288 L192.0384,144.1504 Z M118.8768,123.0176 L131.4656,121.2864 C133.5008,122.2016 134.9184,122.5504 137.36,123.1712 C141.1648,124.16 145.5648,125.1104 152.0832,121.8272 C153.6,121.0752 156.7616,118.1856 158.0384,116.5376 L209.6096,107.184 L214.8704,170.8576 L126.5152,186.7808 L118.8768,123.0176 Z M214.672,100.0736 L209.5808,101.0432 L199.8016,0 L33.1616,19.3216 L53.6928,185.92 L73.2,183.088 C71.6416,180.864 69.216,178.1728 65.0752,174.7296 C59.3312,169.9584 61.36,161.8496 64.752,156.7296 C69.2352,148.08 92.336,137.088 91.0272,123.264 C90.5568,118.2368 89.76,111.696 85.0912,107.2096 C84.9152,109.072 85.232,110.8608 85.232,110.8608 C85.232,110.8608 83.3152,108.416 82.3616,105.0848 C81.4144,103.8048 80.6688,103.3984 79.6608,101.6896 C78.9408,103.664 79.0368,105.9552 79.0368,105.9552 C79.0368,105.9552 77.4688,102.2528 77.216,99.1264 C76.288,100.5248 76.0544,103.1808 76.0544,103.1808 C76.0544,103.1808 74.0192,97.344 74.4832,94.1984 C73.5552,91.4624 70.8,86.032 71.5776,73.6928 C76.6624,77.2544 87.8592,76.4096 92.2208,69.9808 C93.6672,67.8496 94.6624,62.0384 91.4976,50.5824 C89.4656,43.2384 84.4352,32.3008 82.4736,28.1504 L82.24,28.32 C83.2736,31.664 85.4048,38.6688 86.224,42.0704 C88.7008,52.3744 89.3632,55.9648 88.2016,60.7168 C87.2128,64.848 84.8416,67.5488 78.832,70.5696 C72.8224,73.6 64.8448,66.224 64.3424,65.8176 C58.5024,61.1648 53.984,53.5776 53.4816,49.888 C52.9568,45.8528 55.808,43.4304 57.2448,40.1312 C55.1872,40.7168 52.896,41.7632 52.896,41.7632 C52.896,41.7632 55.632,38.9312 59.0048,36.4832 C60.4032,35.5584 61.2224,34.9696 62.6944,33.7472 C60.5632,33.712 58.832,33.7728 58.832,33.7728 C58.832,33.7728 62.3872,31.8528 66.0704,30.4544 C63.376,30.336 60.7936,30.4352 60.7936,30.4352 C60.7936,30.4352 68.7264,26.8864 74.9888,24.2848 C79.296,22.5184 83.504,23.04 85.8688,26.4608 C88.9728,30.9408 92.2336,33.3728 99.1424,34.88 C103.3856,32.9984 104.672,32.0352 110.0032,30.5792 C114.6944,25.4176 118.3776,24.752 118.3776,24.752 C118.3776,24.752 116.5504,26.4288 116.0608,29.0624 C118.72,26.9664 121.6352,25.216 121.6352,25.216 C121.6352,25.216 120.5056,26.608 119.4528,28.8224 L119.696,29.1872 C122.8,27.3248 126.448,25.8592 126.448,25.8592 C126.448,25.8592 125.4048,27.1776 124.1824,28.8832 C126.5248,28.864 131.2704,28.9824 133.1136,29.1904 C143.9904,29.4304 146.2464,17.5776 150.4192,16.0896 C155.6448,14.224 157.9808,13.0944 166.8864,21.8432 C174.5248,29.3568 180.496,42.7968 177.5296,45.808 C175.0432,48.3072 170.1408,44.832 164.7072,38.0608 C161.8368,34.4736 159.664,30.2336 158.6464,24.8448 C157.7888,20.2976 154.448,17.6608 154.448,17.6608 C154.448,17.6608 156.384,21.9808 156.384,25.7856 C156.384,27.8656 156.6432,35.6384 159.9776,40.0032 C159.648,40.64 159.4944,43.1584 159.1296,43.6416 C155.2512,38.9536 146.9216,35.6 145.5616,34.6112 C150.16,38.3776 160.7264,47.0304 164.784,55.328 C168.624,63.1712 166.3616,70.3616 168.304,72.2208 C168.8576,72.752 176.56,82.352 178.0416,87.1744 C180.6272,95.5776 178.1952,104.4128 174.8128,109.8912 L165.3632,111.3632 C163.9808,110.9792 163.0496,110.7872 161.8112,110.0704 C162.496,108.8608 163.8528,105.8464 163.8656,105.2224 L163.3312,104.288 C160.3904,108.4544 155.4656,112.4992 151.3728,114.8224 C146.016,117.8592 139.8432,117.3888 135.824,116.1472 C124.4192,112.6304 113.632,104.9216 111.0304,102.896 C111.0304,102.896 110.9504,104.512 111.44,104.8768 C114.3136,108.1216 120.9024,113.9872 127.2736,118.08 L113.696,119.5744 L120.1152,169.5488 C117.2704,169.9552 116.8256,170.1568 113.712,170.5984 C110.9664,160.8992 105.7152,154.5664 99.9744,150.8768 C94.912,147.6224 87.9296,146.8896 81.248,148.2144 L80.8192,148.7136 C85.4656,148.2304 90.9504,148.9024 96.5856,152.4704 C102.1152,155.968 106.5728,165.0016 108.2144,170.4384 C110.3168,177.3888 111.7696,184.8256 106.112,192.7072 C102.0896,198.3104 90.3456,201.4048 80.8544,194.7072 C83.3888,198.784 86.8128,202.1152 91.4272,202.7424 C98.2752,203.6736 104.7744,202.4832 109.248,197.8912 C113.0656,193.9648 115.0944,185.7536 114.56,177.1072 L120.6048,176.2304 L122.7872,191.7504 L222.8352,179.7024 L214.672,100.0736 Z M153.8016,57.9264 C153.5232,58.5632 153.0816,58.9824 153.7408,61.056 L153.7792,61.1744 L153.8848,61.4432 L154.16,62.064 C155.3472,64.4928 156.6496,66.7808 158.832,67.952 C159.3952,67.856 159.9808,67.792 160.5856,67.7632 C162.6336,67.6736 163.9264,67.9968 164.7424,68.4384 C164.816,68.0288 164.832,67.4336 164.7872,66.5536 C164.6272,63.4784 165.3952,58.2496 159.4848,55.4976 C157.2544,54.464 154.1248,54.7808 153.0816,56.0736 C153.2704,56.0992 153.44,56.1376 153.5744,56.1824 C155.1552,56.7296 154.0864,57.2736 153.8016,57.9264 M170.3712,86.6176 C169.5968,86.1888 165.9744,86.3584 163.4272,86.6624 C158.576,87.2352 153.3376,88.9152 152.192,89.8112 C150.1056,91.424 151.0528,94.2336 152.5952,95.3888 C156.9184,98.6176 160.7072,100.784 164.704,100.256 C167.1584,99.9328 169.3248,96.0448 170.8576,92.5184 C171.9072,90.0896 171.9072,87.4688 170.3712,86.6176 M127.424,61.7312 C128.7904,60.432 120.6112,58.7264 114.2624,63.056 C109.5808,66.2496 109.4304,73.0976 113.9136,76.9792 C114.3616,77.3632 114.7328,77.6352 115.0752,77.8592 C116.384,77.2416 117.8752,76.6208 119.5936,76.064 C122.4928,75.1232 124.9056,74.6368 126.8864,74.3776 C127.8336,73.3184 128.9376,71.4528 128.6624,68.0736 C128.2848,63.488 124.816,64.2144 127.424,61.7312"></path>
		</g>
</svg>

<svg preserveAspectRatio="xMidYMid" viewBox="0 0 256 256" xmlns="http://www.w3.org/2000/svg">
  <g fill="#632CA6">
    <path d="M16.598 255.722H0V217.51h16.598c11.959 0 17.946 6.023 17.946 18.064 0 13.424-5.987 20.148-17.946 20.148m-9.5-6.15h8.428c7.946 0 11.914-4.666 11.914-14.004 0-7.949-3.968-11.923-11.914-11.923H7.098v25.926Zm34.883 6.15h-7.287l16.253-38.212h7.629l16.608 38.212h-7.635l-4.82-10.423H50.465l2.438-6.14h7.956l-6.27-14.356-12.607 30.919Zm29.19-38.212h29.056v6.144H89.248v32.068h-7.094v-32.068H71.168l.003-6.144Zm32.704 38.212H96.59l16.256-38.212h7.629l16.604 38.212h-7.635l-4.819-10.423h-12.266l2.432-6.14h7.956l-6.27-14.356-12.6 30.919Zm54.509 0h-16.598V217.51h16.598c11.965 0 17.946 6.023 17.946 18.064 0 13.424-5.981 20.148-17.946 20.148m-9.504-6.15h8.435c7.94 0 11.917-4.666 11.917-14.004 0-7.949-3.978-11.923-11.917-11.923h-8.435v25.926Zm32.253-12.903c0-12.957 6.416-19.434 19.232-19.434 12.62 0 18.928 6.477 18.928 19.434 0 12.88-6.307 19.328-18.928 19.328-12.25-.003-18.653-6.448-19.232-19.328m19.232 13.168c7.709 0 11.565-4.442 11.565-13.331 0-8.752-3.856-13.133-11.565-13.133-7.91 0-11.863 4.38-11.863 13.133.004 8.89 3.956 13.33 11.863 13.33m48.537-9.577v8.944c-1.638.429-3.107.637-4.39.637-8.682 0-13.014-4.586-13.014-13.76 0-8.47 4.601-12.704 13.788-12.704 3.84 0 7.408.714 10.71 2.14v-6.415c-3.298-1.245-7.046-1.872-11.244-1.872-13.744 0-20.62 6.278-20.62 18.848 0 13.267 6.758 19.913 20.271 19.913 4.65 0 8.512-.678 11.597-2.035v-19.99h-11.46l-2.396 6.288h6.758v.006Z"/>
    <path d="m192.038 144.15-16.89-11.142-14.089 23.536-16.387-4.79-14.429 22.022.74 6.931 78.454-14.457-4.557-49.021-12.842 26.921Zm-73.161-21.132 12.589-1.732c2.035.916 3.452 1.264 5.894 1.885 3.805.989 8.205 1.94 14.723-1.344 1.517-.752 4.679-3.641 5.955-5.29l51.572-9.353 5.26 63.674-88.355 15.923-7.638-63.763Zm95.795-22.944-5.091.97L199.8 0 33.162 19.322 53.694 185.92l19.507-2.832c-1.558-2.224-3.984-4.915-8.125-8.358-5.744-4.772-3.715-12.88-.323-18 4.483-8.65 27.584-19.642 26.275-33.466-.47-5.027-1.267-11.568-5.936-16.054-.176 1.862.141 3.65.141 3.65s-1.917-2.444-2.87-5.775c-.948-1.28-1.693-1.687-2.701-3.395-.72 1.974-.624 4.265-.624 4.265s-1.568-3.702-1.821-6.829c-.928 1.399-1.162 4.055-1.162 4.055s-2.035-5.837-1.57-8.983c-.929-2.736-3.684-8.166-2.906-20.505 5.084 3.561 16.281 2.717 20.643-3.712 1.446-2.131 2.441-7.943-.723-19.399-2.032-7.344-7.063-18.281-9.024-22.432l-.234.17c1.034 3.344 3.165 10.349 3.984 13.75 2.477 10.304 3.14 13.895 1.978 18.647-.99 4.131-3.36 6.832-9.37 9.853-6.01 3.03-13.987-4.346-14.49-4.752-5.84-4.653-10.358-12.24-10.86-15.93-.525-4.035 2.326-6.458 3.763-9.757-2.058.586-4.349 1.632-4.349 1.632s2.736-2.832 6.109-5.28a36.011 36.011 0 0 0 3.69-2.736c-2.132-.035-3.863.026-3.863.026s3.555-1.92 7.238-3.319c-2.694-.118-5.276-.019-5.276-.019s7.932-3.549 14.195-6.15c4.307-1.767 8.515-1.245 10.88 2.176 3.104 4.48 6.365 6.912 13.273 8.419 4.244-1.882 5.53-2.845 10.861-4.3 4.691-5.162 8.375-5.828 8.375-5.828s-1.828 1.677-2.317 4.31c2.659-2.096 5.574-3.846 5.574-3.846s-1.13 1.392-2.182 3.606l.243.365c3.104-1.862 6.752-3.328 6.752-3.328s-1.043 1.319-2.266 3.024c2.343-.019 7.088.1 8.932.307 10.876.24 13.132-11.612 17.305-13.1 5.226-1.866 7.562-2.996 16.467 5.753 7.639 7.514 13.61 20.954 10.644 23.965-2.487 2.5-7.39-.976-12.823-7.747-2.87-3.587-5.043-7.827-6.06-13.216-.858-4.547-4.199-7.184-4.199-7.184s1.936 4.32 1.936 8.125c0 2.08.26 9.852 3.594 14.217-.33.637-.484 3.155-.848 3.639-3.879-4.688-12.208-8.042-13.568-9.03 4.598 3.766 15.164 12.418 19.222 20.716 3.84 7.843 1.578 15.034 3.52 16.893.554.531 8.256 10.131 9.738 14.953 2.585 8.404.153 17.239-3.23 22.717l-9.449 1.472c-1.382-.384-2.313-.576-3.552-1.293.685-1.21 2.042-4.224 2.055-4.848l-.535-.934c-2.94 4.166-7.865 8.211-11.958 10.534-5.357 3.037-11.53 2.567-15.549 1.325-11.405-3.517-22.192-11.225-24.794-13.251 0 0-.08 1.616.41 1.98 2.874 3.246 9.462 9.111 15.834 13.204l-13.578 1.494 6.42 49.975c-2.846.406-3.29.608-6.404 1.05-2.746-9.7-7.997-16.033-13.738-19.722-5.062-3.255-12.044-3.987-18.726-2.663l-.429.5c4.647-.484 10.131.188 15.767 3.756 5.53 3.498 9.987 12.532 11.628 17.968 2.103 6.95 3.556 14.388-2.102 22.27-4.022 5.602-15.766 8.697-25.258 2 2.535 4.076 5.959 7.407 10.573 8.034 6.848.932 13.347-.259 17.821-4.85 3.818-3.927 5.846-12.138 5.312-20.785l6.045-.877 2.182 15.52 100.048-12.048-8.163-79.628Zm-60.87-42.148c-.279.637-.72 1.056-.061 3.13l.038.118.106.27.275.62c1.187 2.429 2.49 4.717 4.672 5.888a14.56 14.56 0 0 1 1.754-.189c2.048-.09 3.34.234 4.156.675.074-.41.09-1.004.045-1.884-.16-3.076.608-8.304-5.302-11.056-2.23-1.034-5.36-.717-6.403.576.188.025.358.064.492.108 1.581.548.512 1.092.228 1.744m16.57 28.692c-.775-.43-4.398-.26-6.945.044-4.851.573-10.09 2.253-11.235 3.15-2.086 1.612-1.14 4.422.403 5.577 4.323 3.229 8.112 5.395 12.109 4.867 2.454-.323 4.62-4.211 6.154-7.738 1.05-2.428 1.05-5.05-.487-5.9M127.424 61.73c1.366-1.299-6.813-3.005-13.162 1.325-4.681 3.194-4.832 10.042-.348 13.923.448.384.819.656 1.161.88a37.853 37.853 0 0 1 4.519-1.795c2.899-.94 5.312-1.427 7.292-1.686.948-1.06 2.052-2.925 1.776-6.304-.377-4.586-3.846-3.86-1.238-6.343"/>
  </g>
</svg>
